X:1
T:Festmarsch
C:Gunnar Orre
R:Marsch
Z:Patrik Mnsson, 2008-11-25
O:lvdalen
M:2/4
L:1/16
K:G
|: G4 G3D | B,2A,2 (G,B,DB) | B4 B3A | G2D2 (DG)Bd | A4 A3B | c2A2 F2D2 |
G4 F3E | D2C2 B2A,2 | G4 G3D | B,2A,2 (G,B,)DG | B4 B3A | G3D (DG)Bd |
A4 A3B | c2A2 F2D2 | G4 F3A | G8 :: E4 G3c | e2g2 f2e2 | d4 B3G |
D4 (DG)Bd | c4 A3F | D4 (DF)Ac | B4 G3B | d8 | E4 G3c | e2g2 f2e2 |
d4 B3G | D4 (DG)Bd | c4 A3F | D2c2 B2A2 | G4 F3A | g8 :|



